src/pos-icons/account-alert-outline.svg

<svg height="24" viewBox="0 0 24 24" width="24" xmlns="http://www.w3.org/2000/svg"><path d="m20 12v-5h2v5zm0 4v-2h2v2zm-10-3c2.67 0 8 1.34 8 4v3h-16v-3c0-2.66 5.33-4 8-4m0-9a4 4 0 0 1 4 4 4 4 0 0 1 -4 4 4 4 0 0 1 -4-4 4 4 0 0 1 4-4m0 10.9c-2.97 0-6.1 1.46-6.1 2.1v1.1h12.2v-1.1c0-.64-3.13-2.1-6.1-2.1m0-9a2.1 2.1 0 0 0 -2.1 2.1 2.1 2.1 0 0 0 2.1 2.1 2.1 2.1 0 0 0 2.1-2.1 2.1 2.1 0 0 0 -2.1-2.1z"/></svg>

<?xml version="1.0" encoding="UTF-8"?><!DOCTYPE svg PUBLIC "-//W3C//DTD SVG 1.1//EN" "http://www.w3.org/Graphics/SVG/1.1/DTD/svg11.dtd"><svg xmlns="http://www.w3.org/2000/svg" xmlns:xlink="http://www.w3.org/1999/xlink" version="1.1" id="mdi-account-alert-outline" width="24" height="24" viewBox="0 0 24 24"><path d="M20,12V7H22V12H20M20,16V14H22V16H20M10,13C12.67,13 18,14.34 18,17V20H2V17C2,14.34 7.33,13 10,13M10,4A4,4 0 0,1 14,8A4,4 0 0,1 10,12A4,4 0 0,1 6,8A4,4 0 0,1 10,4M10,14.9C7.03,14.9 3.9,16.36 3.9,17V18.1H16.1V17C16.1,16.36 12.97,14.9 10,14.9M10,5.9A2.1,2.1 0 0,0 7.9,8A2.1,2.1 0 0,0 10,10.1A2.1,2.1 0 0,0 12.1,8A2.1,2.1 0 0,0 10,5.9Z" /></svg>
